X:26
T:Kitty Sean Cunningham's
T:Kitty Sean's Barn Dance
R:barndance
Z:id:hn-barndance-26
M:C|
L:1/8
K:G
Bc | d<gdB GBDG | F2E2 E2AB | cdcA FDFA | d2 (3^cde d2B=c |
d<gdB G2DG | F2E2 E2AB | cBcA FDEF |1 G2B2 G2 :|2 G2B2 GBAG ||
|: F2FE FAcA | G2GF GABc | dAFA DFAd | B2BA B2ef |
gagf gdBd | c2cB c2AB | cBAF dcAF |1 G2GF GBAG:|2 G2GF G2 ||

